dist/img/svg/exc.svg

<svg width="14" height="19" viewBox="0 0 14 19" fill="none" xmlns="http://www.w3.org/2000/svg">
<g clip-path="url(#clip0_514_15002)">
<path fill-rule="evenodd" clip-rule="evenodd" d="M13.3283 0.125H4.18758C3.91382 0.125 3.67753 0.317857 3.62247 0.586097L1.0625 12.875C0.989089 13.2332 1.26247 13.5684 1.62761 13.5684H10.8659C11.1396 13.5684 11.3759 13.3755 11.431 13.1073L13.9909 0.818367C14.0644 0.460204 13.6935 0.125 13.3283 0.125ZM10.442 14.667H1.20375C0.929991 14.667 0.6937 14.8598 0.638643 15.1281L0.0119766 18.1816C-0.0614339 18.5398 0.211944 18.875 0.577085 18.875H9.81534C10.0891 18.875 10.3254 18.6821 10.3804 18.4139L11.0071 15.3603C11.0805 15.0022 10.8071 14.667 10.442 14.667Z" fill="currentColor"/>
</g>
<defs>
<clipPath id="clip0_514_15002">
<rect width="14" height="18" fill="white" transform="translate(0 0.5)"/>
</clipPath>
</defs>
</svg>

<svg width="14" height="19" viewBox="0 0 14 19" fill="none" xmlns="http://www.w3.org/2000/svg"><g clip-path="url(#clip0_514_15002)"><path fill-rule="evenodd" clip-rule="evenodd" d="M13.328.125h-9.14a.577.577 0 00-.566.461l-2.56 12.289c-.073.358.2.693.566.693h9.238c.274 0 .51-.192.565-.46l2.56-12.29c.073-.358-.297-.693-.663-.693zm-2.886 14.542H1.204a.577.577 0 00-.565.461l-.627 3.054c-.073.358.2.693.565.693h9.238c.274 0 .51-.193.565-.461l.627-3.054a.577.577 0 00-.565-.693z" fill="currentColor"/></g><defs><clipPath id="clip0_514_15002"><path fill="#fff" transform="translate(0 .5)" d="M0 0h14v18H0z"/></clipPath></defs></svg>
